; generated by PrusaSlicer 2.0.0+win64 on 2025-04-08 at 13:42:17

; 

; external perimeters extrusion width = 0.45mm
; perimeters extrusion width = 0.45mm
; infill extrusion width = 0.45mm
; solid infill extrusion width = 0.45mm
; top infill extrusion width = 0.40mm
; first layer extrusion width = 0.20mm

M107
G21 ; set units to millimeters
G90 ; use absolute coordinates
M83 ; use relative distances for extrusion
G1 Z0.200 F3000.000
G1 X53.561 Y33.249
G1 F3600
G1 X54.556 Y32.498 E0.01628
G1 X55.689 Y31.964 E0.01636
G1 X56.907 Y31.673 E0.01636
G1 X72.306 Y31.621 E0.20113
G1 X73.336 Y31.710 E0.01351
G1 X74.343 Y31.975 E0.01359
G1 X75.284 Y32.404 E0.01351
G1 X76.143 Y32.990 E0.01359
G1 X76.890 Y33.715 E0.01359
G1 X77.499 Y34.550 E0.01351
G1 X77.960 Y35.483 E0.01359
G1 X78.255 Y36.481 E0.01359
G1 X78.378 Y37.654 E0.01541
G1 X78.371 Y52.611 E0.19535
G1 X78.266 Y53.462 E0.01121
G1 X78.043 Y54.291 E0.01121
G1 X77.708 Y55.074 E0.01113
G1 X77.264 Y55.808 E0.01121
G1 X76.363 Y56.821 E0.01770
G1 X75.260 Y57.609 E0.01770
G1 X74.016 Y58.131 E0.01763
G1 X72.681 Y58.367 E0.01770
G1 X57.341 Y58.368 E0.20036
G1 X56.502 Y58.259 E0.01105
G1 X55.686 Y58.035 E0.01105
G1 X54.915 Y57.703 E0.01097
G1 X54.192 Y57.264 E0.01105
G1 X53.179 Y56.363 E0.01770
G1 X52.391 Y55.260 E0.01770
G1 X51.869 Y54.016 E0.01763
G1 X51.633 Y52.681 E0.01770
G1 X51.632 Y37.341 E0.20036
G1 X51.741 Y36.502 E0.01105
G1 X51.965 Y35.686 E0.01105
G1 X52.297 Y34.915 E0.01097
G1 X52.736 Y34.192 E0.01105
G1 X53.521 Y33.294 E0.01558
G1 X57.800 Y37.800 F3000.000
G1 X72.200 Y37.800 E0.18808
G1 X72.200 Y52.200 E0.18808
G1 X57.800 Y52.200 E0.18808
G1 X57.800 Y37.860 E0.18730
G1 X57.899 Y45.000
G1 X72.101 Y45.000 E0.18550
G1 Z0.400 F3000.000
G1 X72.275 Y52.275
G1 X57.725 Y52.275 E0.49250
G1 X57.725 Y37.725 E0.49250
G1 X72.275 Y37.725 E0.49250
G1 X72.275 Y52.215 E0.49047
G1 X65.000 Y52.051
G1 X65.000 Y37.949 E0.47734
G1 Z0.600 F3000.000
G1 X57.725 Y37.725
G1 X72.275 Y37.725 E0.49250
G1 X72.275 Y52.275 E0.49250
G1 X57.725 Y52.275 E0.49250
G1 X57.725 Y37.785 E0.49047
G1 X57.949 Y45.000
G1 X72.051 Y45.000 E0.47734
G1 Z0.800 F3000.000
G1 X72.275 Y52.275
G1 X57.725 Y52.275 E0.49250
G1 X57.725 Y37.725 E0.49250
G1 X72.275 Y37.725 E0.49250
G1 X72.275 Y52.215 E0.49047
G1 X65.000 Y52.051
G1 X65.000 Y37.949 E0.47734
G1 Z1.000 F3000.000
G1 X57.725 Y37.725
G1 X72.275 Y37.725 E0.49250
G1 X72.275 Y52.275 E0.49250
G1 X57.725 Y52.275 E0.49250
G1 X57.725 Y37.785 E0.49047
G1 X57.949 Y45.000
G1 X72.051 Y45.000 E0.47734
G1 Z1.200 F3000.000
G1 X72.275 Y52.275
G1 X57.725 Y52.275 E0.49250
G1 X57.725 Y37.725 E0.49250
G1 X72.275 Y37.725 E0.49250
G1 X72.275 Y52.215 E0.49047
G1 X65.000 Y52.051
G1 X65.000 Y37.949 E0.47734
G1 Z1.400 F3000.000
G1 X57.725 Y37.725
G1 X72.275 Y37.725 E0.49250
G1 X72.275 Y52.275 E0.49250
G1 X57.725 Y52.275 E0.49250
G1 X57.725 Y37.785 E0.49047
G1 X57.949 Y45.000
G1 X72.051 Y45.000 E0.47734
G1 Z1.600 F3000.000
G1 X72.275 Y52.275
G1 X57.725 Y52.275 E0.49250
G1 X57.725 Y37.725 E0.49250
G1 X72.275 Y37.725 E0.49250
G1 X72.275 Y52.215 E0.49047
G1 X65.000 Y52.051
G1 X65.000 Y37.949 E0.47734
G1 Z1.800 F3000.000
G1 X57.725 Y37.725
G1 X72.275 Y37.725 E0.49250
G1 X72.275 Y52.275 E0.49250
G1 X57.725 Y52.275 E0.49250
G1 X57.725 Y37.785 E0.49047
G1 X57.949 Y45.000
G1 X72.051 Y45.000 E0.47734
G1 Z2.000 F3000.000
G1 X72.275 Y52.275
G1 X57.725 Y52.275 E0.49250
G1 X57.725 Y37.725 E0.49250
G1 X72.275 Y37.725 E0.49250
G1 X72.275 Y52.215 E0.49047
G1 X65.000 Y52.051
G1 X65.000 Y37.949 E0.47734
G1 Z2.200 F3000.000
G1 X57.725 Y37.725
G1 X72.275 Y37.725 E0.49250
G1 X72.275 Y52.275 E0.49250
G1 X57.725 Y52.275 E0.49250
G1 X57.725 Y37.785 E0.49047
G1 X57.949 Y45.000
G1 X72.051 Y45.000 E0.47734
G1 Z2.400 F3000.000
G1 X72.275 Y52.275
G1 X57.725 Y52.275 E0.49250
G1 X57.725 Y37.725 E0.49250
G1 X72.275 Y37.725 E0.49250
G1 X72.275 Y52.215 E0.49047
G1 X65.000 Y52.051
G1 X65.000 Y37.949 E0.47734
G1 Z2.600 F3000.000
G1 X57.725 Y37.725
G1 X72.275 Y37.725 E0.49250
G1 X72.275 Y52.275 E0.49250
G1 X57.725 Y52.275 E0.49250
G1 X57.725 Y37.785 E0.49047
G1 X57.949 Y45.000
G1 X72.051 Y45.000 E0.47734
G1 Z2.800 F3000.000
G1 X72.275 Y52.275
G1 X57.725 Y52.275 E0.49250
G1 X57.725 Y37.725 E0.49250
G1 X72.275 Y37.725 E0.49250
G1 X72.275 Y52.215 E0.49047
G1 X65.000 Y52.051
G1 X65.000 Y37.949 E0.47734
G1 Z3.000 F3000.000
G1 X57.725 Y37.725
G1 X72.275 Y37.725 E0.49250
G1 X72.275 Y52.275 E0.49250
G1 X57.725 Y52.275 E0.49250
G1 X57.725 Y37.785 E0.49047
G1 X57.949 Y45.000
G1 X72.051 Y45.000 E0.47734
G1 Z3.200 F3000.000
G1 X72.275 Y52.275
G1 X57.725 Y52.275 E0.49250
G1 X57.725 Y37.725 E0.49250
G1 X72.275 Y37.725 E0.49250
G1 X72.275 Y52.215 E0.49047
G1 X65.000 Y52.051
G1 X65.000 Y37.949 E0.47734
G1 Z3.400 F3000.000
G1 X57.725 Y37.725
G1 X72.275 Y37.725 E0.49250
G1 X72.275 Y52.275 E0.49250
G1 X57.725 Y52.275 E0.49250
G1 X57.725 Y37.785 E0.49047
G1 X57.949 Y45.000
G1 X72.051 Y45.000 E0.47734
G1 Z3.600 F3000.000
G1 X72.275 Y52.275
G1 X57.725 Y52.275 E0.49250
G1 X57.725 Y37.725 E0.49250
G1 X72.275 Y37.725 E0.49250
G1 X72.275 Y52.215 E0.49047
G1 X65.000 Y52.051
G1 X65.000 Y37.949 E0.47734
G1 Z3.800 F3000.000
G1 X57.725 Y37.725
G1 X72.275 Y37.725 E0.49250
G1 X72.275 Y52.275 E0.49250
G1 X57.725 Y52.275 E0.49250
G1 X57.725 Y37.785 E0.49047
G1 X57.949 Y45.000
G1 X72.051 Y45.000 E0.47734
G1 Z4.000 F3000.000
G1 X72.275 Y52.275
G1 X57.725 Y52.275 E0.49250
G1 X57.725 Y37.725 E0.49250
G1 X72.275 Y37.725 E0.49250
G1 X72.275 Y52.215 E0.49047
G1 X65.000 Y52.051
G1 X65.000 Y37.949 E0.47734
G1 Z4.200 F3000.000
G1 X57.725 Y37.725
G1 X72.275 Y37.725 E0.49250
G1 X72.275 Y52.275 E0.49250
G1 X57.725 Y52.275 E0.49250
G1 X57.725 Y37.785 E0.49047
G1 X57.949 Y45.000
G1 X72.051 Y45.000 E0.47734
G1 Z4.400 F3000.000
G1 X72.275 Y52.275
G1 X57.725 Y52.275 E0.49250
G1 X57.725 Y37.725 E0.49250
G1 X72.275 Y37.725 E0.49250
G1 X72.275 Y52.215 E0.49047
G1 X65.000 Y52.051
G1 X65.000 Y37.949 E0.47734
G1 Z4.600 F3000.000
G1 X57.725 Y37.725
G1 X72.275 Y37.725 E0.49250
G1 X72.275 Y52.275 E0.49250
G1 X57.725 Y52.275 E0.49250
G1 X57.725 Y37.785 E0.49047
G1 X57.949 Y45.000
G1 X72.051 Y45.000 E0.47734
G1 Z4.800 F3000.000
G1 X72.275 Y52.275
G1 X57.725 Y52.275 E0.49250
G1 X57.725 Y37.725 E0.49250
G1 X72.275 Y37.725 E0.49250
G1 X72.275 Y52.215 E0.49047
G1 X65.000 Y52.051
G1 X65.000 Y37.949 E0.47734
G1 Z5.000 F3000.000
G1 X57.725 Y37.725
G1 X72.275 Y37.725 E0.49250
G1 X72.275 Y52.275 E0.49250
G1 X57.725 Y52.275 E0.49250
G1 X57.725 Y37.785 E0.49047
G1 X57.949 Y45.000
G1 X72.051 Y45.000 E0.47734
G1 Z5.200 F3000.000
G1 X72.275 Y52.275
G1 X57.725 Y52.275 E0.49250
G1 X57.725 Y37.725 E0.49250
G1 X72.275 Y37.725 E0.49250
G1 X72.275 Y52.215 E0.49047
G1 X65.000 Y52.051
G1 X65.000 Y37.949 E0.47734
G1 Z5.400 F3000.000
G1 X57.725 Y37.725
G1 X72.275 Y37.725 E0.49250
G1 X72.275 Y52.275 E0.49250
G1 X57.725 Y52.275 E0.49250
G1 X57.725 Y37.785 E0.49047
G1 X57.949 Y45.000
G1 X72.051 Y45.000 E0.47734
G1 Z5.600 F3000.000
G1 X72.275 Y52.275
G1 X57.725 Y52.275 E0.49250
G1 X57.725 Y37.725 E0.49250
G1 X72.275 Y37.725 E0.49250
G1 X72.275 Y52.215 E0.49047
G1 X65.000 Y52.051
G1 X65.000 Y37.949 E0.47734
G1 Z5.800 F3000.000
G1 X57.725 Y37.725
G1 X72.275 Y37.725 E0.49250
G1 X72.275 Y52.275 E0.49250
G1 X57.725 Y52.275 E0.49250
G1 X57.725 Y37.785 E0.49047
G1 X57.949 Y45.000
G1 X72.051 Y45.000 E0.47734
G1 Z6.000 F3000.000
G1 X72.275 Y52.275
G1 X57.725 Y52.275 E0.49250
G1 X57.725 Y37.725 E0.49250
G1 X72.275 Y37.725 E0.49250
G1 X72.275 Y52.215 E0.49047
G1 X65.000 Y52.051
G1 X65.000 Y37.949 E0.47734
G1 Z6.200 F3000.000
G1 X57.725 Y37.725
G1 X72.275 Y37.725 E0.49250
G1 X72.275 Y52.275 E0.49250
G1 X57.725 Y52.275 E0.49250
G1 X57.725 Y37.785 E0.49047
G1 X57.949 Y45.000
G1 X72.051 Y45.000 E0.47734
G1 Z6.400 F3000.000
G1 X72.275 Y52.275
G1 X57.725 Y52.275 E0.49250
G1 X57.725 Y37.725 E0.49250
G1 X72.275 Y37.725 E0.49250
G1 X72.275 Y52.215 E0.49047
G1 X65.000 Y52.051
G1 X65.000 Y37.949 E0.47734
G1 Z6.600 F3000.000
G1 X57.725 Y37.725
G1 X72.275 Y37.725 E0.49250
G1 X72.275 Y52.275 E0.49250
G1 X57.725 Y52.275 E0.49250
G1 X57.725 Y37.785 E0.49047
G1 X57.949 Y45.000
G1 X72.051 Y45.000 E0.47734
G1 Z6.800 F3000.000
G1 X72.275 Y52.275
G1 X57.725 Y52.275 E0.49250
G1 X57.725 Y37.725 E0.49250
G1 X72.275 Y37.725 E0.49250
G1 X72.275 Y52.215 E0.49047
G1 X65.000 Y52.051
G1 X65.000 Y37.949 E0.47734
G1 Z7.000 F3000.000
G1 X57.725 Y37.725
G1 X72.275 Y37.725 E0.49250
G1 X72.275 Y52.275 E0.49250
G1 X57.725 Y52.275 E0.49250
G1 X57.725 Y37.785 E0.49047
G1 X57.949 Y45.000
G1 X72.051 Y45.000 E0.47734
G1 Z7.200 F3000.000
G1 X72.275 Y52.275
G1 X57.725 Y52.275 E0.49250
G1 X57.725 Y37.725 E0.49250
G1 X72.275 Y37.725 E0.49250
G1 X72.275 Y52.215 E0.49047
G1 X65.000 Y52.051
G1 X65.000 Y37.949 E0.47734
G1 Z7.400 F3000.000
G1 X57.725 Y37.725
G1 X72.275 Y37.725 E0.49250
G1 X72.275 Y52.275 E0.49250
G1 X57.725 Y52.275 E0.49250
G1 X57.725 Y37.785 E0.49047
G1 X57.949 Y45.000
G1 X72.051 Y45.000 E0.47734
G1 Z7.600 F3000.000
G1 X72.275 Y52.275
G1 X57.725 Y52.275 E0.49250
G1 X57.725 Y37.725 E0.49250
G1 X72.275 Y37.725 E0.49250
G1 X72.275 Y52.215 E0.49047
G1 X65.000 Y52.051
G1 X65.000 Y37.949 E0.47734
G1 Z7.800 F3000.000
G1 X57.725 Y37.725
G1 X72.275 Y37.725 E0.49250
G1 X72.275 Y52.275 E0.49250
G1 X57.725 Y52.275 E0.49250
G1 X57.725 Y37.785 E0.49047
G1 X57.949 Y45.000
G1 X72.051 Y45.000 E0.47734
G1 Z8.000 F3000.000
G1 X72.275 Y52.275
G1 X57.725 Y52.275 E0.49250
G1 X57.725 Y37.725 E0.49250
G1 X72.275 Y37.725 E0.49250
G1 X72.275 Y52.215 E0.49047
G1 X65.000 Y52.051
G1 X65.000 Y37.949 E0.47734
G1 Z8.200 F3000.000
G1 X57.725 Y37.725
G1 X72.275 Y37.725 E0.49250
G1 X72.275 Y52.275 E0.49250
G1 X57.725 Y52.275 E0.49250
G1 X57.725 Y37.785 E0.49047
G1 X57.949 Y45.000
G1 X72.051 Y45.000 E0.47734
G1 Z8.400 F3000.000
G1 X72.275 Y52.275
G1 X57.725 Y52.275 E0.49250
G1 X57.725 Y37.725 E0.49250
G1 X72.275 Y37.725 E0.49250
G1 X72.275 Y52.215 E0.49047
G1 X65.000 Y52.051
G1 X65.000 Y37.949 E0.47734
G1 Z8.600 F3000.000
G1 X57.725 Y37.725
G1 X72.275 Y37.725 E0.49250
G1 X72.275 Y52.275 E0.49250
G1 X57.725 Y52.275 E0.49250
G1 X57.725 Y37.785 E0.49047
G1 X57.949 Y45.000
G1 X72.051 Y45.000 E0.47734
G1 Z8.800 F3000.000
G1 X72.275 Y52.275
G1 X57.725 Y52.275 E0.49250
G1 X57.725 Y37.725 E0.49250
G1 X72.275 Y37.725 E0.49250
G1 X72.275 Y52.215 E0.49047
G1 X65.000 Y52.051
G1 X65.000 Y37.949 E0.47734
G1 Z9.000 F3000.000
G1 X57.725 Y37.725
G1 X72.275 Y37.725 E0.49250
G1 X72.275 Y52.275 E0.49250
G1 X57.725 Y52.275 E0.49250
G1 X57.725 Y37.785 E0.49047
G1 X57.949 Y45.000
G1 X72.051 Y45.000 E0.47734
G1 Z9.200 F3000.000
G1 X72.275 Y52.275
G1 X57.725 Y52.275 E0.49250
G1 X57.725 Y37.725 E0.49250
G1 X72.275 Y37.725 E0.49250
G1 X72.275 Y52.215 E0.49047
G1 X65.000 Y52.051
G1 X65.000 Y37.949 E0.47734
G1 Z9.400 F3000.000
G1 X57.725 Y37.725
G1 X72.275 Y37.725 E0.49250
G1 X72.275 Y52.275 E0.49250
G1 X57.725 Y52.275 E0.49250
G1 X57.725 Y37.785 E0.49047
G1 X57.949 Y45.000
G1 X72.051 Y45.000 E0.47734
G1 Z9.600 F3000.000
G1 X72.275 Y52.275
G1 X57.725 Y52.275 E0.49250
G1 X57.725 Y37.725 E0.49250
G1 X72.275 Y37.725 E0.49250
G1 X72.275 Y52.215 E0.49047
G1 X65.000 Y52.051
G1 X65.000 Y37.949 E0.47734
G1 Z9.800 F3000.000
G1 X57.725 Y37.725
G1 X72.275 Y37.725 E0.49250
G1 X72.275 Y52.275 E0.49250
G1 X57.725 Y52.275 E0.49250
G1 X57.725 Y37.785 E0.49047
G1 X57.949 Y45.000
G1 X72.051 Y45.000 E0.47734
G1 Z10.000 F3000.000
G1 X72.275 Y52.275
G1 X57.725 Y52.275 E0.49250
G1 X57.725 Y37.725 E0.49250
G1 X72.275 Y37.725 E0.49250
G1 X72.275 Y52.215 E0.49047
G1 X65.000 Y52.051
G1 X65.000 Y37.949 E0.47734
G1 Z10.200 F3000.000
G1 X57.725 Y37.725
G1 X72.275 Y37.725 E0.49250
G1 X72.275 Y52.275 E0.49250
G1 X57.725 Y52.275 E0.49250
G1 X57.725 Y37.785 E0.49047
G1 X57.949 Y45.000
G1 X72.051 Y45.000 E0.47734
G1 Z10.400 F3000.000
G1 X72.275 Y52.275
G1 X57.725 Y52.275 E0.49250
G1 X57.725 Y37.725 E0.49250
G1 X72.275 Y37.725 E0.49250
G1 X72.275 Y52.215 E0.49047
G1 X65.000 Y52.051
G1 X65.000 Y37.949 E0.47734
G1 Z10.600 F3000.000
G1 X57.725 Y37.725
G1 X72.275 Y37.725 E0.49250
G1 X72.275 Y52.275 E0.49250
G1 X57.725 Y52.275 E0.49250
G1 X57.725 Y37.785 E0.49047
G1 X57.949 Y45.000
G1 X72.051 Y45.000 E0.47734
G1 Z10.800 F3000.000
G1 X72.275 Y52.275
G1 X57.725 Y52.275 E0.49250
G1 X57.725 Y37.725 E0.49250
G1 X72.275 Y37.725 E0.49250
G1 X72.275 Y52.215 E0.49047
G1 X65.000 Y52.051
G1 X65.000 Y37.949 E0.47734
G1 Z11.000 F3000.000
G1 X57.725 Y37.725
G1 X72.275 Y37.725 E0.49250
G1 X72.275 Y52.275 E0.49250
G1 X57.725 Y52.275 E0.49250
G1 X57.725 Y37.785 E0.49047
G1 X57.949 Y45.000
G1 X72.051 Y45.000 E0.47734
G1 Z11.200 F3000.000
G1 X72.275 Y52.275
G1 X57.725 Y52.275 E0.49250
G1 X57.725 Y37.725 E0.49250
G1 X72.275 Y37.725 E0.49250
G1 X72.275 Y52.215 E0.49047
G1 X65.000 Y52.051
G1 X65.000 Y37.949 E0.47734
G1 Z11.400 F3000.000
G1 X57.725 Y37.725
G1 X72.275 Y37.725 E0.49250
G1 X72.275 Y52.275 E0.49250
G1 X57.725 Y52.275 E0.49250
G1 X57.725 Y37.785 E0.49047
G1 X57.949 Y45.000
G1 X72.051 Y45.000 E0.47734
G1 Z11.600 F3000.000
G1 X72.275 Y52.275
G1 X57.725 Y52.275 E0.49250
G1 X57.725 Y37.725 E0.49250
G1 X72.275 Y37.725 E0.49250
G1 X72.275 Y52.215 E0.49047
G1 X65.000 Y52.051
G1 X65.000 Y37.949 E0.47734
G1 Z11.800 F3000.000
G1 X57.725 Y37.725
G1 X72.275 Y37.725 E0.49250
G1 X72.275 Y52.275 E0.49250
G1 X57.725 Y52.275 E0.49250
G1 X57.725 Y37.785 E0.49047
G1 X57.949 Y45.000
G1 X72.051 Y45.000 E0.47734
G1 Z12.000 F3000.000
G1 X72.275 Y52.275
G1 X57.725 Y52.275 E0.49250
G1 X57.725 Y37.725 E0.49250
G1 X72.275 Y37.725 E0.49250
G1 X72.275 Y52.215 E0.49047
G1 X65.000 Y52.051
G1 X65.000 Y37.949 E0.47734
G1 Z12.200 F3000.000
G1 X57.725 Y37.725
G1 X72.275 Y37.725 E0.49250
G1 X72.275 Y52.275 E0.49250
G1 X57.725 Y52.275 E0.49250
G1 X57.725 Y37.785 E0.49047
G1 X57.949 Y45.000
G1 X72.051 Y45.000 E0.47734
G1 Z12.400 F3000.000
G1 X72.275 Y52.275
G1 X57.725 Y52.275 E0.49250
G1 X57.725 Y37.725 E0.49250
G1 X72.275 Y37.725 E0.49250
G1 X72.275 Y52.215 E0.49047
G1 X65.000 Y52.051
G1 X65.000 Y37.949 E0.47734
G1 Z12.600 F3000.000
G1 X57.725 Y37.725
G1 X72.275 Y37.725 E0.49250
G1 X72.275 Y52.275 E0.49250
G1 X57.725 Y52.275 E0.49250
G1 X57.725 Y37.785 E0.49047
G1 X57.949 Y45.000
G1 X72.051 Y45.000 E0.47734
G1 Z12.800 F3000.000
G1 X72.275 Y52.275
G1 X57.725 Y52.275 E0.49250
G1 X57.725 Y37.725 E0.49250
G1 X72.275 Y37.725 E0.49250
G1 X72.275 Y52.215 E0.49047
G1 X65.000 Y52.051
G1 X65.000 Y37.949 E0.47734
G1 Z13.000 F3000.000
G1 X57.725 Y37.725
G1 X72.275 Y37.725 E0.49250
G1 X72.275 Y52.275 E0.49250
G1 X57.725 Y52.275 E0.49250
G1 X57.725 Y37.785 E0.49047
G1 X57.949 Y45.000
G1 X72.051 Y45.000 E0.47734
G1 Z13.200 F3000.000
G1 X72.275 Y52.275
G1 X57.725 Y52.275 E0.49250
G1 X57.725 Y37.725 E0.49250
G1 X72.275 Y37.725 E0.49250
G1 X72.275 Y52.215 E0.49047
G1 X65.000 Y52.051
G1 X65.000 Y37.949 E0.47734
G1 Z13.400 F3000.000
G1 X57.725 Y37.725
G1 X72.275 Y37.725 E0.49250
G1 X72.275 Y52.275 E0.49250
G1 X57.725 Y52.275 E0.49250
G1 X57.725 Y37.785 E0.49047
G1 X57.949 Y45.000
G1 X72.051 Y45.000 E0.47734
G1 Z13.600 F3000.000
G1 X72.275 Y52.275
G1 X57.725 Y52.275 E0.49250
G1 X57.725 Y37.725 E0.49250
G1 X72.275 Y37.725 E0.49250
G1 X72.275 Y52.215 E0.49047
G1 X65.000 Y52.051
G1 X65.000 Y37.949 E0.47734
G1 Z13.800 F3000.000
G1 X57.725 Y37.725
G1 X72.275 Y37.725 E0.49250
G1 X72.275 Y52.275 E0.49250
G1 X57.725 Y52.275 E0.49250
G1 X57.725 Y37.785 E0.49047
G1 X57.949 Y45.000
G1 X72.051 Y45.000 E0.47734
G1 Z14.000 F3000.000
G1 X72.275 Y52.275
G1 X57.725 Y52.275 E0.49250
G1 X57.725 Y37.725 E0.49250
G1 X72.275 Y37.725 E0.49250
G1 X72.275 Y52.215 E0.49047
G1 X65.000 Y52.051
G1 X65.000 Y37.949 E0.47734
G1 Z14.200 F3000.000
G1 X57.725 Y37.725
G1 X72.275 Y37.725 E0.49250
G1 X72.275 Y52.275 E0.49250
G1 X57.725 Y52.275 E0.49250
G1 X57.725 Y37.785 E0.49047
G1 X57.949 Y45.000
G1 X72.051 Y45.000 E0.47734
G1 Z14.400 F3000.000
G1 X72.275 Y52.275
G1 X57.725 Y52.275 E0.49250
G1 X57.725 Y37.725 E0.49250
G1 X72.275 Y37.725 E0.49250
G1 X72.275 Y52.215 E0.49047
G1 X65.000 Y52.051
G1 X65.000 Y37.949 E0.47734
G1 Z14.600 F3000.000
G1 X57.725 Y37.725
G1 X72.275 Y37.725 E0.49250
G1 X72.275 Y52.275 E0.49250
G1 X57.725 Y52.275 E0.49250
G1 X57.725 Y37.785 E0.49047
G1 X57.949 Y45.000
G1 X72.051 Y45.000 E0.47734
G1 Z14.800 F3000.000
